app/component-library/components/Icons/Icon/assets/flash.svg

<svg width="24" height="24" viewBox="0 0 24 24" fill="none" xmlns="http://www.w3.org/2000/svg">
<path d="M18.1917 10.7199H15.1017V3.5199C15.1017 1.8399 14.1917 1.4999 13.0817 2.7599L12.2817 3.6699L5.51175 11.3699C4.58175 12.4199 4.97175 13.2799 6.37175 13.2799H9.46175V20.4799C9.46175 22.1599 10.3717 22.4999 11.4817 21.2399L12.2817 20.3299L19.0518 12.6299C19.9818 11.5799 19.5917 10.7199 18.1917 10.7199Z" fill="currentColor"/>
</svg>

<svg xmlns="http://www.w3.org/2000/svg" width="24" height="24" viewBox="0 0 24 24" fill="none"><path d="M18.192 10.72h-3.09v-7.2c0-1.68-.91-2.02-2.02-.76l-.8.91-6.77 7.7c-.93 1.05-.54 1.91.86 1.91h3.09v7.2c0 1.68.91 2.02 2.02.76l.8-.91 6.77-7.7c.93-1.05.54-1.91-.86-1.91z" fill="currentColor"/></svg>
